X:1
T: Long Odds
N:4 September 1999
C:
S:
A:
O:
R:
M:2/4
K:A
I:speed 200
%W: A
% voice 1 (1 lines, 28 notes)
K:A
M:2/4
L:1/16
E2 A2 A2 B2 |c4 c2 A2 |d4 d2 B2 |c2 A2 G2 F2 |E2 A2 A2 B2 |c2 d2 e2 c2 |f2 d2 B2 G2 |A4 A4 |
%W:
% voice 1 (1 lines, 28 notes)
E2 A2 A2 B2 |c4 c2 A2 |d4 d2 B2 |c2 A2 G2 F2 |E2 A2 A2 B2 |c2 d2 e2 c2 |f2 d2 B2 G2 |A4 A4 |
%W: B
% voice 1 (1 lines, 27 notes)
f2 a2 g2 f2 |e4 e4 |d2 f2 e2 d2 |d4 c4 |B2 c2 d2 B2 |c2 d2 e2 c2 |f2 d2 B2 A2 |G4 F2 E2 |
%W:
% voice 1 (1 lines, 26 notes)
f2 a2 g2 f2 |e4 e4 |d2 f2 e2 d2 |d4 c4 |B2 c2 d2 B2 |c2 d2 e2 c2 |f2 d2 B2 G2 |A4 A4 ||
